!!!COM: Mozart, Wolfgang Amadeus
!!!OTL: Musikalische Würfelspiele, Kontre-Tänze
!!!SCA: K<sup>6</sup> Anh. C30.01 (K<sup>3</sup> Anh. 294d)
**kern	**kern
*staff2	*staff2
*clefF4	*clefG2
*M2/4	*M2/4
*MM110	*MM110
*>[A,A1,A,A2,B]	*>[A,A1,A,A2,B]
*>norep[A,A2,B]	*>norep[A,A2,B]
*>A	*>A
=33	=33
4C	16cc
.	16c
.	16e
.	16g
4C	16cc
.	16ee
.	16gg
.	16ccc
=150	=150
16C	8gg
16E	.
16G	8ee
16E	.
4C	16cc
.	16ee
.	16gg
.	16ee
=57	=57
8G	8ff
16GG	8ff
16AA	.
16BB	8dd
16C	.
16D	8dd
16BB	.
=69	=69
4C	8cc
.	16g
.	16e
4r	8c
.	8c
=117	=117
16D	8aa
16A	.
16F#	4ff#
16A	.
16D	.
16A	.
16F#	8dd
16A	.
=30	=30
4BB 4G	8gg
.	8dd
4BB	(8dd
.	8dd#)
=23	=23
4C	16ee
.	16cc
.	16ee
.	16cc
4D	8a
.	8ff#
=115	=115
*>A1	*>A1
4GG	4g 4b 4gg
16G	4r
16F	.
16E	.
16D	.
=115:|!	=115:|!
*>A2	*>A2
4GG	4g 4b 4gg
16GG	4r
16AA	.
16BB	.
16C#	.
=4||	=4||
*>B	*>B
4D	8d
.	8dd
4C 4D	8ff#
.	8aa
=104	=104
4G	8gg
.	16ddd
.	16bb
4GG	4gg
=62	=62
16C	8ee
16GG	.
16E	8ee
16C	.
16c	8gg
16G	.
16E	8ee
16C	.
=126	=126
4GG	8b
.	8dd
16G	4g
16F	.
16E	.
16D	.
=75	=75
16C	4cc
16GG	.
16AA	.
16BB	.
16C	8cc
16GG	.
16AA	8cc
16BB	.
=48	=48
4C	8cc
.	16cc
.	16ee
4r	8gg
.	16gg
.	16ee
=159	=159
4G	8dd
.	4ff
4GG	.
.	16dd
.	16b
=98	=98
4C	4cc
4CC	4c
==	==
*-	*-
